src/images/icons/filter-categories/filter-category-culture.svg

<?xml version="1.0" encoding="UTF-8"?>
<svg width="40px" height="40px" viewBox="0 0 40 40" version="1.1" xmlns="http://www.w3.org/2000/svg" xmlns:xlink="http://www.w3.org/1999/xlink">
    <!-- Generator: Sketch 49.3 (51167) - http://www.bohemiancoding.com/sketch -->
    <title>filter-category-8</title>
    <desc>Created with Sketch.</desc>
    <g id="Symbols" stroke="none" stroke-width="1" fill="none" fill-rule="evenodd">
        <g id="Elements-/-Sort-/-Card-/-~Parts-/-Icon_08">
            <mask id="mask-2" fill="white">
                <path d="M39.7711719,6.27101562 C37.2764844,3.77640625 32.6766406,1.89585938 29.4957031,1.04351563 C27.0210156,0.38046875 24.2373437,7.8125e-05 21.8584375,7.8125e-05 C20.3589062,7.8125e-05 19.0550781,0.145703125 17.983125,0.432890625 C17.7135156,0.50515625 17.5029687,0.715703125 17.4307031,0.9853125 C17.2013281,1.84148438 17.0044531,2.73578125 16.8405469,3.6528125 C16.8342969,3.67960938 16.8296875,3.706875 16.8263281,3.73453125 C16.1899219,7.3425 16.0661719,11.2958594 16.506875,14.6846875 C14.5357031,14.8114844 12.4360938,15.1557031 10.5042969,15.6733594 C7.32351562,16.525625 2.72382812,18.4059375 0.22890625,20.9007812 C0.0315625,21.098125 -0.045625,21.3857813 0.026640625,21.6553906 C0.276015625,22.5860156 0.5803125,23.5353906 0.93046875,24.486875 C0.9309375,24.4880469 0.931328125,24.4892187 0.931796875,24.4903906 C2.13835937,27.7671875 3.89453125,31.0680469 5.87085937,33.7116406 C8.01546875,36.5803906 11.3925781,39.9999219 15.3017969,39.9999219 C15.8635156,39.9999219 16.4228906,39.9264062 16.9641406,39.7813281 C19.3499219,39.1420312 21.2238281,37.1496875 22.383125,34.0196875 C23.2654687,31.6376562 23.7352344,28.6389844 23.7567969,25.3000781 C24.0680469,25.3461719 24.3827344,25.3702344 24.6982031,25.3702344 C28.6071875,25.3702344 31.9842969,21.9504687 34.1290625,19.0817188 C36.6801562,15.6692969 38.8649219,11.1624219 39.9734375,7.02570313 C40.045625,6.75609375 39.9685937,6.46835937 39.7711719,6.27101562 Z M16.5597656,38.2721094 C16.1503125,38.3817969 15.7270313,38.4374219 15.3017187,38.4374219 C12.7564062,38.4374219 9.8515625,36.426875 7.12226562,32.7760938 C5.33335937,30.383125 3.73328125,27.4267188 2.58914062,24.4596875 C3.01039062,24.1328906 3.68335937,23.6248438 4.38117187,23.1540625 C4.73882812,22.9127344 4.83320312,22.4271875 4.591875,22.0694531 C4.35054687,21.7117969 3.865,21.6174219 3.50726562,21.85875 C2.96601562,22.2239063 2.44710937,22.6039063 2.03539062,22.9151563 C1.9003125,22.5071094 1.774375,22.100625 1.65929687,21.6973438 C3.60601562,19.9482031 7.241875,18.1649219 10.90875,17.1825781 C12.7927344,16.6777344 14.843125,16.3464844 16.7551562,16.2344531 C17.0051562,17.5380469 17.3420312,18.7175781 17.7617187,19.7653125 C17.7635938,19.7700781 17.7655469,19.7749219 17.7675,19.7798438 C17.8078906,19.8803125 17.8489844,19.9797656 17.8908594,20.0777344 C17.8932031,20.083125 17.8955469,20.0885156 17.8978125,20.0938281 C18.1126562,20.5946094 18.3472656,21.0632031 18.6017187,21.4984375 C18.6050781,21.5041406 18.6083594,21.5101563 18.6117187,21.5160156 C18.6126562,21.5175781 18.6135937,21.5190625 18.6145312,21.520625 C18.6292187,21.5455469 18.6432031,21.5713281 18.6580469,21.5960938 C18.6891406,21.648125 18.7215625,21.6977344 18.7532812,21.74875 C18.77375,21.7816406 18.7941406,21.8147656 18.8147656,21.8472656 C18.8588281,21.9166406 18.9035937,21.9847656 18.9486719,22.0521094 C18.9705469,22.0847656 18.9925,22.1171094 19.0146875,22.1492969 C19.0609375,22.2165625 19.1075,22.2832031 19.1546875,22.3484375 C19.174375,22.3757031 19.1944531,22.4021875 19.2142969,22.4290625 C19.2653906,22.4980469 19.3166406,22.5667188 19.3689062,22.6333594 C19.3746094,22.6405469 19.3804687,22.6475 19.3861719,22.6546875 C19.4889844,22.7849219 19.5942187,22.91 19.7014844,23.0310938 C19.2310156,23.6220313 18.5096875,23.9778125 17.7426562,23.9778125 C16.8513281,23.9778125 16.0207812,23.4982813 15.5751563,22.7264063 C15.3594531,22.3528125 14.881875,22.2247656 14.5079687,22.4404688 C14.1342969,22.65625 14.00625,23.1339844 14.2220313,23.5076563 C14.9459375,24.7614063 16.2949219,25.5403125 17.7426562,25.5403125 C18.9491406,25.5403125 20.0867969,24.9989844 20.8514844,24.0932031 C21.1065625,24.281875 21.3715625,24.4490625 21.6452344,24.5967188 C21.6566406,24.6028906 21.6678906,24.6092969 21.6792969,24.6153906 C21.7510937,24.6535156 21.8236719,24.6899219 21.8966406,24.7252344 C21.9169531,24.7350781 21.9372656,24.7449219 21.9575781,24.7545313 C22.0278125,24.7876563 22.0986719,24.8196094 22.1700781,24.8501563 C22.17875,24.8539063 22.1872656,24.8582031 22.1960156,24.8617969 C22.2222656,30.7055469 20.7641406,37.1455469 16.5597656,38.2721094 Z M32.8775781,18.1460937 C30.1480469,21.7970313 27.2432813,23.8077344 24.6982031,23.8077344 C24.2730469,23.8077344 23.8498438,23.7521094 23.4403906,23.6424219 C23.3645313,23.6221094 23.2902344,23.5994531 23.2164844,23.5757813 C23.2142969,23.575 23.2120313,23.5741406 23.2097656,23.5733594 C19.8310937,22.4869531 18.6057031,17.9216406 18.1759375,15.2969531 C18.175,15.2911719 18.1734375,15.285625 18.1723437,15.2797656 C18.1646094,15.2325 18.1571094,15.1857813 18.1498437,15.1396094 C17.6438281,11.9191406 17.7046094,8.070625 18.2773438,4.52023438 C18.8049219,4.44796875 19.6417187,4.344375 20.4834375,4.28546875 C20.9138281,4.2553125 21.2383594,3.88203125 21.2082031,3.4515625 C21.1779688,3.02117188 20.8066406,2.69546875 20.3742969,2.72679688 C19.7258594,2.77210938 19.0891406,2.84140625 18.578125,2.90484375 C18.6546094,2.5440625 18.73625,2.18757813 18.8239063,1.83757813 C19.6808594,1.65492188 20.6989063,1.56257813 21.8584375,1.56257813 C24.1066406,1.56257813 26.7428906,1.9234375 29.0913281,2.55273438 C32.7580469,3.53523438 36.3939844,5.31875 38.340625,7.06765625 C37.2473438,10.8978906 35.2246094,15.0066406 32.8775781,18.1460937 Z M34.851875,12.1111719 C34.1279688,10.8573438 32.7789844,10.0784375 31.33125,10.0784375 C29.8835156,10.0784375 28.5344531,10.8573438 27.810625,12.1111719 C27.5948437,12.4848438 27.7228906,12.9625781 28.0965625,13.1783594 C28.4703906,13.3940625 28.948125,13.2660938 29.16375,12.8924219 C29.609375,12.1204688 30.4399219,11.6409375 31.33125,11.6409375 C32.2225781,11.6409375 33.053125,12.1204688 33.49875,12.8924219 C33.6435156,13.1430469 33.9060156,13.2832031 34.1760938,13.2832031 C34.3085938,13.2832031 34.4428906,13.249375 34.5659375,13.1783594 C34.9396094,12.9625781 35.0676563,12.4848438 34.851875,12.1111719 Z M23.2528906,7.7840625 C21.9989844,7.06007813 20.4413281,7.06023438 19.1875781,7.7840625 C18.8139063,7.99984375 18.6858594,8.47757813 18.9016406,8.85125 C19.1174219,9.22484375 19.595,9.35304688 19.9688281,9.1371875 C20.740625,8.6915625 21.6996875,8.6915625 22.4716406,9.1371875 C23.2436719,9.58296875 23.723125,10.4135156 23.723125,11.3047656 C23.723125,11.7361719 24.0729688,12.0860156 24.504375,12.0860156 C24.9357813,12.0860156 25.285625,11.7361719 25.285625,11.3047656 C25.285625,9.85710938 24.5067188,8.50804688 23.2528906,7.7840625 Z M28.3742188,17.7270313 C28.0689844,17.4219531 27.5744531,17.4219531 27.2692969,17.7270313 C26.6392188,18.3572656 25.7125,18.605625 24.851875,18.3748438 C23.9908594,18.1441406 23.3127344,17.4659375 23.0820313,16.6050781 C22.9703906,16.1883594 22.5421875,15.9410938 22.1251563,16.0527344 C21.7084375,16.1644531 21.4610938,16.5928125 21.5728125,17.0096094 C21.9475781,18.4078906 23.0490625,19.509375 24.4475,19.8841406 C24.7928906,19.9767188 25.1448438,20.0217969 25.4942969,20.0217969 C26.5599219,20.0217969 27.6033594,19.6028125 28.3742188,18.8319531 C28.6792969,18.526875 28.6792969,18.0321875 28.3742188,17.7270313 Z M10.4210156,23.5357813 L10.4209375,23.5357813 C9.98953125,23.5357813 9.6396875,23.8855469 9.6396875,24.3169531 C9.63960937,25.2082813 9.16007812,26.0388281 8.38828125,26.4845313 C7.61632812,26.9301563 6.65742187,26.9302344 5.88546875,26.4845313 C5.51171875,26.26875 5.03398437,26.396875 4.81828125,26.7704688 C4.6025,27.1441406 4.73054687,27.621875 5.10421875,27.8376563 C5.73109375,28.1996094 6.43398437,28.3805469 7.136875,28.3805469 C7.83976562,28.3805469 8.54265625,28.1996094 9.16960937,27.8376563 C10.4233594,27.1136719 11.2022656,25.7647656 11.2022656,24.3170313 C11.2021875,23.885625 10.8524219,23.5357813 10.4210156,23.5357813 Z M18.65,32.4707031 C17.62625,31.4470313 16.1217969,31.0439063 14.7232813,31.4185156 C13.3248438,31.7932031 12.2232813,32.8946875 11.8485938,34.2932031 C11.736875,34.71 11.9842188,35.1382813 12.4010156,35.25 C12.46875,35.2682031 12.5367188,35.276875 12.6036719,35.2767969 C12.9485938,35.2767969 13.2642969,35.0466406 13.3578125,34.6975781 C13.5885156,33.8365625 14.2666406,33.1584375 15.1275781,32.9278125 C15.9885938,32.6971875 16.9148438,32.9453906 17.5450781,33.575625 C17.8502344,33.880625 18.3447656,33.880625 18.65,33.575625 C18.9550781,33.2705469 18.9550781,32.7758594 18.65,32.4707031 Z M22.8107031,2.75375 C22.7914844,2.75070313 22.7719531,2.74765625 22.7522656,2.74476563 C22.3250781,2.68203125 21.9286719,2.9778125 21.8661719,3.4046875 C21.80375,3.83164063 22.0992188,4.22835938 22.5261719,4.29078125 L22.5635156,4.2965625 C22.6053906,4.30328125 22.6469531,4.3065625 22.688125,4.3065625 C23.0650781,4.3065625 23.3969531,4.03289063 23.4585156,3.64875 C23.5267969,3.22273438 23.2367188,2.82195313 22.8107031,2.75375 Z M6.64054688,21.1178125 C6.48820313,20.7142187 6.0375,20.5103906 5.63367188,20.6628906 C5.61421875,20.6702344 5.59460938,20.6778125 5.57492188,20.6857031 C5.17414063,20.845625 4.97890625,21.3000781 5.13882813,21.7008594 C5.26085938,22.0066406 5.55445313,22.1928125 5.86476563,22.1928125 C5.96109375,22.1928125 6.0590625,22.1748437 6.1540625,22.1369531 L6.185625,22.1246875 C6.58929688,21.9722656 6.79296875,21.5214844 6.64054688,21.1178125 Z"></path>
            </mask>
            <path d="M39.7711719,6.27101562 C37.2764844,3.77640625 32.6766406,1.89585938 29.4957031,1.04351563 C27.0210156,0.38046875 24.2373437,7.8125e-05 21.8584375,7.8125e-05 C20.3589062,7.8125e-05 19.0550781,0.145703125 17.983125,0.432890625 C17.7135156,0.50515625 17.5029687,0.715703125 17.4307031,0.9853125 C17.2013281,1.84148438 17.0044531,2.73578125 16.8405469,3.6528125 C16.8342969,3.67960938 16.8296875,3.706875 16.8263281,3.73453125 C16.1899219,7.3425 16.0661719,11.2958594 16.506875,14.6846875 C14.5357031,14.8114844 12.4360938,15.1557031 10.5042969,15.6733594 C7.32351562,16.525625 2.72382812,18.4059375 0.22890625,20.9007812 C0.0315625,21.098125 -0.045625,21.3857813 0.026640625,21.6553906 C0.276015625,22.5860156 0.5803125,23.5353906 0.93046875,24.486875 C0.9309375,24.4880469 0.931328125,24.4892187 0.931796875,24.4903906 C2.13835937,27.7671875 3.89453125,31.0680469 5.87085937,33.7116406 C8.01546875,36.5803906 11.3925781,39.9999219 15.3017969,39.9999219 C15.8635156,39.9999219 16.4228906,39.9264062 16.9641406,39.7813281 C19.3499219,39.1420312 21.2238281,37.1496875 22.383125,34.0196875 C23.2654687,31.6376562 23.7352344,28.6389844 23.7567969,25.3000781 C24.0680469,25.3461719 24.3827344,25.3702344 24.6982031,25.3702344 C28.6071875,25.3702344 31.9842969,21.9504687 34.1290625,19.0817188 C36.6801562,15.6692969 38.8649219,11.1624219 39.9734375,7.02570313 C40.045625,6.75609375 39.9685937,6.46835937 39.7711719,6.27101562 Z M16.5597656,38.2721094 C16.1503125,38.3817969 15.7270313,38.4374219 15.3017187,38.4374219 C12.7564062,38.4374219 9.8515625,36.426875 7.12226562,32.7760938 C5.33335937,30.383125 3.73328125,27.4267188 2.58914062,24.4596875 C3.01039062,24.1328906 3.68335937,23.6248438 4.38117187,23.1540625 C4.73882812,22.9127344 4.83320312,22.4271875 4.591875,22.0694531 C4.35054687,21.7117969 3.865,21.6174219 3.50726562,21.85875 C2.96601562,22.2239063 2.44710937,22.6039063 2.03539062,22.9151563 C1.9003125,22.5071094 1.774375,22.100625 1.65929687,21.6973438 C3.60601562,19.9482031 7.241875,18.1649219 10.90875,17.1825781 C12.7927344,16.6777344 14.843125,16.3464844 16.7551562,16.2344531 C17.0051562,17.5380469 17.3420312,18.7175781 17.7617187,19.7653125 C17.7635938,19.7700781 17.7655469,19.7749219 17.7675,19.7798438 C17.8078906,19.8803125 17.8489844,19.9797656 17.8908594,20.0777344 C17.8932031,20.083125 17.8955469,20.0885156 17.8978125,20.0938281 C18.1126562,20.5946094 18.3472656,21.0632031 18.6017187,21.4984375 C18.6050781,21.5041406 18.6083594,21.5101563 18.6117187,21.5160156 C18.6126562,21.5175781 18.6135937,21.5190625 18.6145312,21.520625 C18.6292187,21.5455469 18.6432031,21.5713281 18.6580469,21.5960938 C18.6891406,21.648125 18.7215625,21.6977344 18.7532812,21.74875 C18.77375,21.7816406 18.7941406,21.8147656 18.8147656,21.8472656 C18.8588281,21.9166406 18.9035937,21.9847656 18.9486719,22.0521094 C18.9705469,22.0847656 18.9925,22.1171094 19.0146875,22.1492969 C19.0609375,22.2165625 19.1075,22.2832031 19.1546875,22.3484375 C19.174375,22.3757031 19.1944531,22.4021875 19.2142969,22.4290625 C19.2653906,22.4980469 19.3166406,22.5667188 19.3689062,22.6333594 C19.3746094,22.6405469 19.3804687,22.6475 19.3861719,22.6546875 C19.4889844,22.7849219 19.5942187,22.91 19.7014844,23.0310938 C19.2310156,23.6220313 18.5096875,23.9778125 17.7426562,23.9778125 C16.8513281,23.9778125 16.0207812,23.4982813 15.5751563,22.7264063 C15.3594531,22.3528125 14.881875,22.2247656 14.5079687,22.4404688 C14.1342969,22.65625 14.00625,23.1339844 14.2220313,23.5076563 C14.9459375,24.7614063 16.2949219,25.5403125 17.7426562,25.5403125 C18.9491406,25.5403125 20.0867969,24.9989844 20.8514844,24.0932031 C21.1065625,24.281875 21.3715625,24.4490625 21.6452344,24.5967188 C21.6566406,24.6028906 21.6678906,24.6092969 21.6792969,24.6153906 C21.7510937,24.6535156 21.8236719,24.6899219 21.8966406,24.7252344 C21.9169531,24.7350781 21.9372656,24.7449219 21.9575781,24.7545313 C22.0278125,24.7876563 22.0986719,24.8196094 22.1700781,24.8501563 C22.17875,24.8539063 22.1872656,24.8582031 22.1960156,24.8617969 C22.2222656,30.7055469 20.7641406,37.1455469 16.5597656,38.2721094 Z M32.8775781,18.1460937 C30.1480469,21.7970313 27.2432813,23.8077344 24.6982031,23.8077344 C24.2730469,23.8077344 23.8498438,23.7521094 23.4403906,23.6424219 C23.3645313,23.6221094 23.2902344,23.5994531 23.2164844,23.5757813 C23.2142969,23.575 23.2120313,23.5741406 23.2097656,23.5733594 C19.8310937,22.4869531 18.6057031,17.9216406 18.1759375,15.2969531 C18.175,15.2911719 18.1734375,15.285625 18.1723437,15.2797656 C18.1646094,15.2325 18.1571094,15.1857813 18.1498437,15.1396094 C17.6438281,11.9191406 17.7046094,8.070625 18.2773438,4.52023438 C18.8049219,4.44796875 19.6417187,4.344375 20.4834375,4.28546875 C20.9138281,4.2553125 21.2383594,3.88203125 21.2082031,3.4515625 C21.1779688,3.02117188 20.8066406,2.69546875 20.3742969,2.72679688 C19.7258594,2.77210938 19.0891406,2.84140625 18.578125,2.90484375 C18.6546094,2.5440625 18.73625,2.18757813 18.8239063,1.83757813 C19.6808594,1.65492188 20.6989063,1.56257813 21.8584375,1.56257813 C24.1066406,1.56257813 26.7428906,1.9234375 29.0913281,2.55273438 C32.7580469,3.53523438 36.3939844,5.31875 38.340625,7.06765625 C37.2473438,10.8978906 35.2246094,15.0066406 32.8775781,18.1460937 Z M34.851875,12.1111719 C34.1279688,10.8573438 32.7789844,10.0784375 31.33125,10.0784375 C29.8835156,10.0784375 28.5344531,10.8573438 27.810625,12.1111719 C27.5948437,12.4848438 27.7228906,12.9625781 28.0965625,13.1783594 C28.4703906,13.3940625 28.948125,13.2660938 29.16375,12.8924219 C29.609375,12.1204688 30.4399219,11.6409375 31.33125,11.6409375 C32.2225781,11.6409375 33.053125,12.1204688 33.49875,12.8924219 C33.6435156,13.1430469 33.9060156,13.2832031 34.1760938,13.2832031 C34.3085938,13.2832031 34.4428906,13.249375 34.5659375,13.1783594 C34.9396094,12.9625781 35.0676563,12.4848438 34.851875,12.1111719 Z M23.2528906,7.7840625 C21.9989844,7.06007813 20.4413281,7.06023438 19.1875781,7.7840625 C18.8139063,7.99984375 18.6858594,8.47757813 18.9016406,8.85125 C19.1174219,9.22484375 19.595,9.35304688 19.9688281,9.1371875 C20.740625,8.6915625 21.6996875,8.6915625 22.4716406,9.1371875 C23.2436719,9.58296875 23.723125,10.4135156 23.723125,11.3047656 C23.723125,11.7361719 24.0729688,12.0860156 24.504375,12.0860156 C24.9357813,12.0860156 25.285625,11.7361719 25.285625,11.3047656 C25.285625,9.85710938 24.5067188,8.50804688 23.2528906,7.7840625 Z M28.3742188,17.7270313 C28.0689844,17.4219531 27.5744531,17.4219531 27.2692969,17.7270313 C26.6392188,18.3572656 25.7125,18.605625 24.851875,18.3748438 C23.9908594,18.1441406 23.3127344,17.4659375 23.0820313,16.6050781 C22.9703906,16.1883594 22.5421875,15.9410938 22.1251563,16.0527344 C21.7084375,16.1644531 21.4610938,16.5928125 21.5728125,17.0096094 C21.9475781,18.4078906 23.0490625,19.509375 24.4475,19.8841406 C24.7928906,19.9767188 25.1448438,20.0217969 25.4942969,20.0217969 C26.5599219,20.0217969 27.6033594,19.6028125 28.3742188,18.8319531 C28.6792969,18.526875 28.6792969,18.0321875 28.3742188,17.7270313 Z M10.4210156,23.5357813 L10.4209375,23.5357813 C9.98953125,23.5357813 9.6396875,23.8855469 9.6396875,24.3169531 C9.63960937,25.2082813 9.16007812,26.0388281 8.38828125,26.4845313 C7.61632812,26.9301563 6.65742187,26.9302344 5.88546875,26.4845313 C5.51171875,26.26875 5.03398437,26.396875 4.81828125,26.7704688 C4.6025,27.1441406 4.73054687,27.621875 5.10421875,27.8376563 C5.73109375,28.1996094 6.43398437,28.3805469 7.136875,28.3805469 C7.83976562,28.3805469 8.54265625,28.1996094 9.16960937,27.8376563 C10.4233594,27.1136719 11.2022656,25.7647656 11.2022656,24.3170313 C11.2021875,23.885625 10.8524219,23.5357813 10.4210156,23.5357813 Z M18.65,32.4707031 C17.62625,31.4470313 16.1217969,31.0439063 14.7232813,31.4185156 C13.3248438,31.7932031 12.2232813,32.8946875 11.8485938,34.2932031 C11.736875,34.71 11.9842188,35.1382813 12.4010156,35.25 C12.46875,35.2682031 12.5367188,35.276875 12.6036719,35.2767969 C12.9485938,35.2767969 13.2642969,35.0466406 13.3578125,34.6975781 C13.5885156,33.8365625 14.2666406,33.1584375 15.1275781,32.9278125 C15.9885938,32.6971875 16.9148438,32.9453906 17.5450781,33.575625 C17.8502344,33.880625 18.3447656,33.880625 18.65,33.575625 C18.9550781,33.2705469 18.9550781,32.7758594 18.65,32.4707031 Z M22.8107031,2.75375 C22.7914844,2.75070313 22.7719531,2.74765625 22.7522656,2.74476563 C22.3250781,2.68203125 21.9286719,2.9778125 21.8661719,3.4046875 C21.80375,3.83164063 22.0992188,4.22835938 22.5261719,4.29078125 L22.5635156,4.2965625 C22.6053906,4.30328125 22.6469531,4.3065625 22.688125,4.3065625 C23.0650781,4.3065625 23.3969531,4.03289063 23.4585156,3.64875 C23.5267969,3.22273438 23.2367188,2.82195313 22.8107031,2.75375 Z M6.64054688,21.1178125 C6.48820313,20.7142187 6.0375,20.5103906 5.63367188,20.6628906 C5.61421875,20.6702344 5.59460938,20.6778125 5.57492188,20.6857031 C5.17414063,20.845625 4.97890625,21.3000781 5.13882813,21.7008594 C5.26085938,22.0066406 5.55445313,22.1928125 5.86476563,22.1928125 C5.96109375,22.1928125 6.0590625,22.1748437 6.1540625,22.1369531 L6.185625,22.1246875 C6.58929688,21.9722656 6.79296875,21.5214844 6.64054688,21.1178125 Z" fill="#000000" fill-rule="nonzero"></path>
        </g>
    </g>
</svg>

<svg width="40" height="40" viewBox="0 0 40 40" xmlns="http://www.w3.org/2000/svg">
    <title>
        filter-category-8
    </title>
    <path d="M39.771 6.271c-2.495-2.495-7.094-4.375-10.275-5.227C27.02.38 24.237 0 21.858 0c-1.5 0-2.803.146-3.875.433a.781.781 0 0 0-.552.552 32.291 32.291 0 0 0-.605 2.75c-.636 3.608-.76 7.56-.32 10.95-1.97.126-4.07.47-6.002.988-3.18.853-7.78 2.733-10.275 5.228a.781.781 0 0 0-.202.754c.249.931.553 1.88.903 2.832l.002.003c1.206 3.277 2.963 6.578 4.939 9.222C8.015 36.58 11.393 40 15.3 40c.563 0 1.122-.074 1.663-.219 2.386-.639 4.26-2.631 5.42-5.761.881-2.382 1.351-5.381 1.373-8.72.311.046.626.07.941.07 3.91 0 7.286-3.42 9.431-6.288 2.551-3.413 4.736-7.92 5.844-12.056a.781.781 0 0 0-.202-.755zM16.56 38.272c-.41.11-.833.165-1.258.165-2.546 0-5.45-2.01-8.18-5.66-1.789-2.394-3.389-5.35-4.533-8.317a34.879 34.879 0 0 1 1.792-1.306.781.781 0 0 0-.874-1.295c-.541.365-1.06.745-1.472 1.056a30.59 30.59 0 0 1-.376-1.218c1.947-1.749 5.583-3.532 9.25-4.514a29.884 29.884 0 0 1 5.846-.949c.25 1.304.587 2.484 1.007 3.531l.005.015c.04.1.082.2.124.298l.007.016c.215.5.45.97.704 1.404l.01.018c0 .002.002.003.003.005l.043.075c.031.052.064.102.095.153l.062.098a10.178 10.178 0 0 0 .34.501l.06.081c.05.069.102.138.154.204l.017.022c.103.13.208.255.315.376a2.51 2.51 0 0 1-1.958.947 2.51 2.51 0 0 1-2.168-1.252.781.781 0 0 0-1.353.782 4.077 4.077 0 0 0 3.52 2.032 4.079 4.079 0 0 0 3.11-1.447c.255.189.52.356.793.504l.034.018c.072.039.145.075.218.11l.06.03c.07.033.142.065.213.095l.026.012c.026 5.844-1.432 12.284-5.636 13.41zm16.318-20.126c-2.73 3.651-5.635 5.662-8.18 5.662a4.863 4.863 0 0 1-1.482-.232l-.006-.003c-3.379-1.086-4.604-5.651-5.034-8.276l-.004-.017a23.215 23.215 0 0 1-.022-.14c-.506-3.22-.445-7.07.127-10.62a34.882 34.882 0 0 1 2.206-.235.781.781 0 1 0-.109-1.558c-.648.045-1.285.114-1.796.178.077-.36.158-.717.246-1.067.857-.183 1.875-.275 3.034-.275 2.249 0 4.885.36 7.233.99 3.667.982 7.303 2.766 9.25 4.515-1.094 3.83-3.116 7.939-5.463 11.078zm1.974-6.035a4.077 4.077 0 0 0-3.52-2.033 4.077 4.077 0 0 0-3.521 2.033.781.781 0 1 0 1.353.781 2.51 2.51 0 0 1 2.167-1.251c.892 0 1.722.48 2.168 1.251a.781.781 0 1 0 1.353-.78zm-11.6-4.327a4.076 4.076 0 0 0-4.064 0 .781.781 0 1 0 .78 1.353 2.51 2.51 0 0 1 2.504 0 2.51 2.51 0 0 1 1.251 2.168.781.781 0 0 0 1.563 0 4.077 4.077 0 0 0-2.033-3.52zm5.122 9.943a.781.781 0 0 0-1.105 0 2.51 2.51 0 0 1-2.417.648 2.51 2.51 0 0 1-1.77-1.77.781.781 0 1 0-1.51.405 4.077 4.077 0 0 0 2.876 2.874 4.078 4.078 0 0 0 3.927-1.052.781.781 0 0 0 0-1.105zm-17.953 5.809a.781.781 0 0 0-.781.781 2.51 2.51 0 0 1-1.252 2.168 2.51 2.51 0 0 1-2.503 0 .781.781 0 1 0-.78 1.353c.626.362 1.329.543 2.032.543.703 0 1.406-.181 2.033-.543a4.077 4.077 0 0 0 2.032-3.521.781.781 0 0 0-.781-.781zm8.229 8.935a4.077 4.077 0 0 0-3.927-1.052 4.077 4.077 0 0 0-2.874 2.874.781.781 0 1 0 1.509.405 2.51 2.51 0 0 1 1.77-1.77 2.51 2.51 0 0 1 2.417.648.782.782 0 0 0 1.105-1.105zm4.16-29.717a.78.78 0 1 0-.285 1.537l.039.006a.782.782 0 0 0 .247-1.543zM6.64 21.118a.781.781 0 0 0-1.065-.432.781.781 0 1 0 .58 1.451l.03-.012a.781.781 0 0 0 .456-1.007z" fill="#000" fill-rule="nonzero"/>
</svg>
